X: 36071
T: Scary
R: jig
M: 6/8
K: Eminor
eAA efg|eAA edc|Bba gab|geB dec|
cAA efg|cAA Beg|Bba ged|eAA A3:|
eag efg|eag eBA|eag efg|Aga bag|
age edc|cAG GAB|Bag efg|eAA A3:|

